!!!OTL: 224. Khosid
!!!Genre:	Khosid
!!!Mode:	Minor
!!!Listening/dance:	dance
!!!One_Mode:	no
**kern
*thru
*I"P1
*clefG2
*k[b-e-]
*B-:
!LO:TX:a:i:t=Bb-major
8f
=11
8.b-L
16ccJk
8ddL
8ddJ
=12
8ddL
8dd
8dd
8ddJ
=13
16ddLL
16ee-J
8ffJ
(8qff/
16ee-LL)
16ddJ
8ee-J
=14
16ddLL
16ccJ
8ddJ
(8qdd/
16ccLL)
16b-J
8ccJ
=15
4.b-
8cc
=16
16ddLL
16ee-J
8ffJ
(8qff/
16ee-LL)
16ddJ
8ee-J
=17
16ddLL
16ccJ
8ddJ
(8qdd/
16ccLL)
16b-J
8ccJ
=18
4.b-
8f
=19
8.b-L
16ccJk
8ddL
8ddJ
=20
8ddL
(8qee-/
8ddJ)
(8qee-/
4dd)
=21
8.b-L
16ccJk
8ddL
8ddJ
=22
8gL
(8qa/
8gJ)
4f
!!!End-Modulation
*-
